X:1
T:Wohl dem, der in Gottes
T:Benedictus Ducis
T:Source : DDT 34---Leipzig---Breitkopf & Härtel---J.Wolf---1908. First publication: Neue Deudsche Geistliche Gesenge---Wittemberg---G.Rhau---1544. Editor : André Vierendeels (16/07/17).               
T:Notes : Original clefs : C1, C3, C4,  F4 Original note values have been halved Editorial accidentals above the staff 
T:Wohl dem, der in Gottes
T:©
T:©
C:Benedictus Ducis
Z:©
%%score [ 1 [ 2 3 ] 4 ]
L:1/8
Q:1/4=120
M:2/2
K:F
V:1 treble nm="Soprano" snm="S"
V:2 treble-8 nm="Tenor 1" snm="T 1"
V:3 treble-8 nm="Tenor 2" snm="T 2"
V:4 bass nm="Bass" snm="B"
V:1
 G4 B4 | c4 d4- | d4 G2 B2 | A2 G2 A4 | G8 | z2 B4 B2 | G2 A4 B2 | G4 F4- | F2 E2 F2 G2 | %9
w: Wohl dem,|der in|_ Got- tes|Furch- * te|steht,|Wohl dem,|der in _|Got- *|* * * tes|
"^#" F2 G4 F2 | G2 D2 E2 F2 | G4 F4 | E4 D2 G2- | GF F4 E2 | F4 z2 F2 | F3 E/D/ C3 D | %16
w: Furch- * te|steht, und auf _|sei- nem|We- * *|* * * ge|geht. Dein|Ar- * * * *|
 E2 F2 D2 E2 | F2 A3 G F2 | E4 D2 A2 | G2 A2 B2 G2- | G2 F2 G2 A2- | AG G4 F2 | G8 |] %23
w: * beit wird er-|schies- * * zen|wohl, se- lig|wirst _ _ sein|_ _ und Glük-|* * * kes|voll.|
V:2
 z4 g4 | a4 f2 g2- |"^b" gf d2 e2 d2- | d2 g4 f2 | g2 G2 B2 c2 | d8 | e2 f3 e d2- | d2 c2 d4- | %8
w: Wohl|dem, der _|_ _ in Got- *|* * tes|Furch- * * te|steht,|wohl dem, _ der-|* in Got-|
 d2 cB A2 G2 |"^b" d2 e2 d4 | z2 B2 AG d2- | dB c2 d4 | G2 A2 B3 c | d4 c4 | A8- | A8 | %16
w: * * * * tes|Furch- te steht,|und _ _ der|_ _ _ auf|se- nem We- *|* ge|geht.|_|
 G2 A2 B2 c2 | A2 f3 e d2- | d2 c2 d2 f2 | e2 f4 e2 | d4 e4 | d8 | d8 |] %23
w: Dein Ar- beit wird|er- schies- * *|* zen wohl, se-|lig wirst sein|und Glük-|kes|voll.|
V:3
 z8 | z8 | z8 | z8 | z8 | G4 B4 | c4 d2 B2- | B2 AG A2 B2- | BA G2 F2 B2- | BA c2 A4 | G4 z4 | %11
w: |||||Wohl dem,|der in Got-|* * * tes Furch-||* * * te|steht,|
 G4 A2 B2 | c4 F2 G2 | A2 B2 G4 | F8- | F4 z4 | z2 F2 G2 G2 | F3 G A2 B2 | G2 A2 D4 | z2 d4 c2 | %20
w: und der auf|sei- nem _|We- * ge|geht.|_|Dein Ar- beit|wird _ _ er-|schies- zen wohl,|se- lig|
 B2 A2 c4 | B4 A4 | G8 |] %23
w: wirst sein und|Glük- kes|voll.|
V:4
 z8 | z8 | z8 | z8 | z8 | z4 G,4 | C,2 F,4 G,2 | _E,4 D,3 C, |"^b" B,,2 C,2 D,2 E,2 | D,2 C,2 D,4 | %10
w: |||||Wohl|dem, der in|Got- * tes|Fuch- * * *|* te steht,|
 z2 G,,2 C,2 B,,2 | _E,4 D,4 | C,4 B,,2 _E,2 | D,2 B,,2 C,4 | D,4 z2 D,2 | D,2 D,2 F,4 | %16
w: und der auf|sei- nem|We- * *|* * ge|geht. Dein|Ar- beit wird|
 E,2 D,4 C,2 | D,8 |"^#" z8 | z2 D,2 B,,2 C,2 | D,4 C,4 | G,4 D,4 | G,,8 |] %23
w: er- schie- zen|wohl,||se- lig wirst|sein und|Glük- kes|voll.|

